X:1
T:I Will Trade the Old Cross for a Crown
T:John Melvin Henson
T:I Will Trade the Old Cross for a Crown
T:Public Domain
T:Public Domain
T:Public Domain
C:John Melvin Henson
Z:Public Domain
%%score ( 1 2 ) ( 3 4 )
L:1/8
M:4/4
K:A
V:1 treble 
V:2 treble 
V:3 bass 
V:4 bass 
V:1
 [CA]>[CB] | [Ec]2 [Ec]>[Ec] [Ec]2 [DB]>[Ec] | [DB] [CA]4- [CA] [CA]>[EG] | %3
w: 1.~I shall|not bear the cross thro’ yon|ci- ty * When the|
w: 2.~Tho’ the|cross oft- en- times has been|hea- vy, * And oft|
w: 3.~Oft, my|bark has been tossed on life’s|bil- lows, * And each|
w: 4.~Ev- ’ry|cross that I bear for my|Sav- ior * Will at|
 [DF]2 [DF]>[FA] [FA]2 [FA]>[DF] | [CE]6 [EA]>[EB] | [Ec]2 [Ac]>[Fc] [Ec]2 [DB]>[Ec] | %6
w: bur- dens of life are laid|down. When I|knock on the por- tals of|
w: for- tune on me seems to|frown, But how|hap- py I’ll be o- ver|
w: wave tries my ves- sel to|drown. But no|storm cloud can harm me for-|
w: last, when He calls, be laid|down, And my|sor- rows will all be for-|
 [DB] [CA]4- [CA] [CE]>[CE] | [DF]2 [FA][Fd] [Ec]2 [DB]>[DB] | [CA]6 ||"^Refrain" [CE]>[CA] | %10
w: Heav- en * I will|trade the old cross for a|crown.||
w: yon- der * When I|trade the old cross for a|crown.||
w: ev- er * When I|trade the old cross for a|crown.|Yes, I’ll|
w: got- ten * When I|trade the old cross for a|crown.||
 [Ec]2 [Ec][Ec] [Ec]2 [DB]>[Ec] | (C2 D>D C2) [CA]>[Ec] | [EB]2 [EB]>[EB] (BF) [=DA]>[Dc] | %13
w: |||
w: |||
w: trade the old cross for a|crown, * * * When the|dens of life are * laid down.|
w: |||
 (E2 G>F ED) [CA]>[DB] | [Ec]2 [Ac]>[Fc] [Ec]2 [DB]>[Ec] | [DB](CDD C[CA]) [CE]>[CE] | %16
w: |||
w: |||
w: the * * * * pearl gates|me shall swing o- pen, I|will trade * * * * the old|
w: |||
 [DF]2 [FA][Fd] [Ec]2 [DB]>[DB] | (C2 DD C2) |] %18
w: ||
w: ||
w: for a crown. * * *||
w: ||
V:2
 x2 | x8 | x8 | x8 | x8 | x8 | x8 | x8 | x6 || x2 | x8 | A6 x2 | x4 ^D2 x2 | B6 x2 | x8 | %15
w: |||||||||||||||
w: |||||||||||||||
w: |||||||||||bur-|When|for||
 x A4- x3 | x8 | A6 |] %18
w: |||
w: |||
w: cross|||
V:3
 [A,,E,]>[A,,E,] | [A,,A,]2 [A,,A,]>[A,,A,] [A,,A,]2 [E,G,]>[E,G,] | %2
w: ~ ~|~ ~ ~ ~ ~ ~|
 [A,,A,] [A,,A,]4- [A,,A,] [A,,A,]>[C,A,] | [D,A,]2 [D,A,]>[D,A,] [D,D]2 [D,D]>[D,A,] | %4
w: ~ ~ * ~ ~|~ ~ ~ ~ ~ ~|
 [A,,A,]6 [C,A,]>[E,G,] | A,2 A,>A, A,2 [E,G,]>[E,G,] | [A,,A,] [A,,A,]4- [A,,A,] [A,,A,]>[A,,A,] | %7
w: ~ ~ ~|~ ~ ~ ~ ~ ~|~ ~ * ~ ~|
 [D,A,]2 [D,A,][D,A,] [E,A,]2 [E,G,]>[E,G,] | [A,,A,]6 || [A,,A,]>[A,,E,] | %10
w: ~ ~ ~ ~ ~ ~|~|~ ~|
 [A,,A,]2 [A,,C,A,][A,,E,G,] [A,,G,]2 [E,G,]>[E,G,] | A,2 F,>F, E,2 [A,,E,]>[A,,A,] | %12
w: ~ ~ ~ for a crown|~ ~ ~ ~ ~ ~|
 [E,G,]2 [E,G,]>[E,G,] (F,B,) [B,,B,]>[B,,A,] | [E,G,]2 [E,B,]>[E,A,] [E,G,]2 [A,,A,]>[A,,E,] | %14
w: ~ ~ are laid * down ~|~ ~ ~ ~ ~ ~|
 [A,,A,]2 [A,,A,]>[A,,A,] [A,,A,]2 [E,G,]>[E,G,] | %15
w: ~ shall swing o- pen ~|
 [A,,A,][A,,E,][A,,F,][A,,F,] [A,,E,][A,,E,] [A,,A,]>[A,,A,] | %16
w: ~ ~ ~ ~ ~ ~ ~ ~|
 [D,A,]2 [D,A,][D,A,] [E,A,]2 [E,G,]>[E,G,] | A,2 F,F, E,2 |] %18
w: ~ for a crown. * *||
V:4
 x2 | x8 | x8 | x8 | x8 | A,2 A,>A, A,2 x2 | x8 | x8 | x6 || x2 | x8 | A,,6 x2 | x4 B,,2 x2 | x8 | %14
w: |||||~ ~ ~ ~||||||~|~||
 x8 | x8 | x8 | A,,6 |] %18
w: ||||

